static/images/props/triquetra.svg

<?xml version="1.0" encoding="utf-8"?><svg xmlns="http://www.w3.org/2000/svg" viewBox="0 0 290.3 169.6" xml:space="preserve"><path d="M289.1 83.2a85.4 85.4 0 0 0-76-34.6C209.6 41 205 34.1 199.4 28A84.4 84.4 0 0 0 145.3.2l-1.7-.2-1 1.6-.1.2a85 85 0 0 0-7.2 34.4c0 17.6 5.2 34.4 15.2 48.6a84.3 84.3 0 0 0-15.2 48.6c0 11.9 2.4 23.5 7.2 34.4l.9 1.8 1.8-.2a84.4 84.4 0 0 0 54.2-27.8 85 85 0 0 0 13.7-20.6 85.2 85.2 0 0 0 76-34.6l1.1-1.6zm-139.9-47c0-7.1 1-14.1 3.1-20.7 20.1 4.6 37 17.5 46.7 35.6a85 85 0 0 0-38.7 22.2l-.4.4c-7-11.2-10.7-24.2-10.7-37.5zm3.1 118a71.2 71.2 0 0 1 7.5-58.1l.3.3a83.4 83.4 0 0 0 38.7 22.2 71 71 0 0 1-46.5 35.6zm51.9-48.6a72 72 0 0 1-35.8-20.7c9.7-10.4 22-17.5 35.8-20.7 2 6.7 3.1 13.6 3.1 20.7-.1 7.1-1.1 14-3.1 20.7zm16.1 1.5h-2.1c2-7.3 3-14.8 3-22.3s-1-15-3-22.4h2.1c19.5 0 38.4 8.1 51.9 22.3a71.3 71.3 0 0 1-51.9 22.4z" style="fill:#2e3192;stroke:#fff;stroke-width:2.75;stroke-miterlimit:10"/><path d="m0 84.8 1.1 1.6a85.4 85.4 0 0 0 76 34.6c3.6 7.5 8.2 14.5 13.7 20.6 14 15.7 33.3 25.6 54.2 27.8l1.8.2.9-1.8a85 85 0 0 0 7.2-34.4c0-17.5-5.3-34.3-15.2-48.6 10-14.2 15.2-31 15.2-48.6 0-11.9-2.4-23.5-7.2-34.4l-.1-.2-1-1.6-1.6.2A85 85 0 0 0 90.8 28a85 85 0 0 0-13.7 20.6 85.2 85.2 0 0 0-76 34.6zm130.4-11.2-.4-.4A85.3 85.3 0 0 0 91.3 51c9.7-18 26.6-31 46.7-35.5 2 6.7 3.1 13.6 3.1 20.7-.1 13.3-3.7 26.3-10.7 37.4m-39 45.1c14.6-3.7 28-11.4 38.7-22.2l.3-.3a70.3 70.3 0 0 1 10.6 37.4c0 7.1-1 14-3.1 20.7a71.5 71.5 0 0 1-46.5-35.6M83 84.9c0-7.1 1-14 3.1-20.7a71 71 0 0 1 35.8 20.7c-9.6 10.3-22 17.4-35.8 20.7-2-6.7-3.1-13.6-3.1-20.7m-65-.3a72 72 0 0 1 51.9-22.3H72c-2 7.4-3 14.9-3 22.4s1 15 3 22.3h-2.1c-19.6.1-38.5-8.1-51.9-22.4" style="fill:none"/></svg>

<?xml version="1.0" encoding="utf-8"?>
<!-- Generator: Adobe Illustrator 27.1.0, SVG Export Plug-In . SVG Version: 6.00 Build 0)  -->
<svg version="1.1" id="fan" xmlns="http://www.w3.org/2000/svg" xmlns:xlink="http://www.w3.org/1999/xlink" x="0px" y="0px"
	 viewBox="0 0 290.3 169.6" style="enable-background:new 0 0 290.3 169.6;" xml:space="preserve">
<style type="text/css">
    .st0{fill:#2E3192;stroke:#FFFFFF;stroke-width:2.75;stroke-miterlimit:10;}
	.st1{fill:none;}
</style>
<g>
	<g>
		<g>
			<g>
				<g>
					<path class="st0" d="M289.1,83.2c-16-21.9-41.7-34.9-68.7-34.9c-2.4,0-4.9,0.1-7.3,0.3C209.6,41,205,34.1,199.4,28
						c-14-15.7-33.3-25.6-54.1-27.8L143.6,0l-1,1.6l-0.1,0.2c-4.8,10.9-7.2,22.5-7.2,34.4c0,17.6,5.2,34.4,15.2,48.6
						c-10,14.3-15.2,31.1-15.2,48.6c0,11.9,2.4,23.5,7.2,34.4l0.9,1.8l1.8-0.2c20.9-2.2,40.2-12.1,54.2-27.8
						c5.5-6.1,10.1-13,13.7-20.6c2.5,0.2,5,0.3,7.3,0.3c27.1,0,52.7-13,68.7-34.9l1.1-1.6L289.1,83.2z M149.2,36.2
						c0-7.1,1-14.1,3.1-20.7c20.1,4.6,37,17.5,46.7,35.6c-14.5,3.7-27.8,11.4-38.7,22.2l-0.4,0.4C152.9,62.5,149.2,49.5,149.2,36.2z
						 M152.3,154.2c-2-6.6-3.1-13.6-3.1-20.7c0-13.3,3.7-26.2,10.6-37.4l0.3,0.3c10.7,10.8,24.1,18.5,38.7,22.2
						C189,136.8,172.1,149.6,152.3,154.2z M204.2,105.6c-13.8-3.3-26.1-10.4-35.8-20.7c9.7-10.4,22-17.5,35.8-20.7
						c2,6.7,3.1,13.6,3.1,20.7C207.2,92,206.2,98.9,204.2,105.6z M220.3,107.1c-0.5,0-0.9,0-1.3,0c-0.2,0-0.5,0-0.8,0
						c2-7.3,3-14.8,3-22.3c0-7.5-1-15-3-22.4c0.7,0,1.4,0,2.1,0c19.5,0,38.4,8.1,51.9,22.3C258.9,98.9,240,107.1,220.3,107.1z"/>
				</g>
			</g>
		</g>
		<g>
			<g>
				<g>
					<path class="st1" d="M0,84.8l1.1,1.6c16,21.9,41.7,34.9,68.7,34.9c2.3,0,4.8-0.1,7.3-0.3c3.6,7.5,8.2,14.5,13.7,20.6
						c14,15.7,33.3,25.6,54.2,27.8l1.8,0.2l0.9-1.8c4.8-10.9,7.2-22.5,7.2-34.4c0-17.5-5.3-34.3-15.2-48.6
						c10-14.2,15.2-31,15.2-48.6c0-11.9-2.4-23.5-7.2-34.4l-0.1-0.2l-1-1.6L145,0.2C124.1,2.5,104.9,12.3,90.8,28
						c-5.5,6.1-10.1,13-13.7,20.6c-2.4-0.2-4.9-0.3-7.3-0.3c-27.1,0-52.7,13-68.7,34.9L0,84.8z M130.4,73.6l-0.4-0.4
						C119.2,62.4,105.8,54.8,91.3,51C101,33,117.9,20,138,15.5c2,6.7,3.1,13.6,3.1,20.7C141,49.5,137.4,62.5,130.4,73.6z
						 M91.4,118.7c14.6-3.7,28-11.4,38.7-22.2l0.3-0.3c7,11.2,10.6,24.1,10.6,37.4c0,7.1-1,14-3.1,20.7
						C118.1,149.6,101.2,136.8,91.4,118.7z M83,84.9c0-7.1,1-14,3.1-20.7c13.7,3.2,26.1,10.3,35.8,20.7c-9.6,10.3-22,17.4-35.8,20.7
						C84.1,98.9,83,92,83,84.9z M18,84.6c13.5-14.2,32.4-22.3,51.9-22.3c0.7,0,1.4,0,2.1,0c-2,7.4-3,14.9-3,22.4c0,7.5,1,15,3,22.3
						c-0.3,0-0.5,0-0.8,0c-0.4,0-0.9,0-1.3,0C50.3,107.1,31.4,98.9,18,84.6z"/>
				</g>
			</g>
		</g>
	</g>
</g>
</svg>
